searx/static/themes/simple/img/searxng.svg

<svg width="1000" height="373"><svg width="1000" height="373" data-background-color="#528265" transform="translate(.312 -.812)" viewBox="0 0 241 90"><svg width="241.15" height="89.608" transform="translate(-.075 .196)" viewBox="0 0 241.15 89.608"><svg width="241.15" height="89.608" viewBox="0 0 241.15 89.608"><svg width="241.15" height="89.608" viewBox="0 0 241.15 89.608"><svg width="241.15" height="89.608" viewBox="0 0 241.15 89.608"><svg width="241.15" height="58.248" viewBox="0 0 241.15 58.248"><svg/><svg><svg/></svg><svg width="241.15" height="58.248" viewBox="0 0 241.15 58.248"><svg xml:space="preserve" width="50.389" height="58.248" class="icon-s-0" data-fill-palette-color="accent" viewBox="17.3 12.2 65.4 75.6" enable-background="new 0 0 100 100"><path fill="#fff" d="M50 12.2 17.3 31.1v37.8L50 87.8l32.7-18.9V31.1L50 12.2zM32.1 37.4 50 16l17 21.4H32.1zm35.2 2L50 70.4l-18.2-31h35.5zM48.1 71l-27.7-4.5 9.8-25.9L48.1 71zm20.8-30.3 10.7 25.9-27.7 4.5 17-30.4zm.3-3.6L52.6 16l27 15.6-10.4 5.5zm-39.4 0-9.4-5.5 26.8-15.5-17.4 21zm-1 1.7-9.5 25V33.3l9.5 5.5zM49 73.2v11.7L20.9 68.7 49 73.2zm2 0 28.1-4.5L51 84.9V73.2zm19.3-34.4 10.5-5.6v30.9L70.3 38.8z" data-fill-palette-color="accent"/></svg><svg width="177.009" height="58.248" data-palette-color="#ffffff" transform="translate(64.141)" viewBox="3.7 -35.75 109.4 36"><path fill="#fff" d="M39.55 0h-6.9v-23.3l-9.1 17.35H19.7L10.6-23.3V0H3.7v-35.5h7.4l10.5 20.2 10.6-20.2h7.35V0ZM62.1.25q-3.9 0-7.08-1.5-3.17-1.5-5.45-4.08-2.27-2.57-3.52-5.8-1.25-3.22-1.25-6.62 0-3.55 1.32-6.78 1.33-3.22 3.65-5.75 2.33-2.52 5.5-3.99 3.18-1.48 6.98-1.48 3.85 0 7.02 1.55 3.18 1.55 5.43 4.15 2.25 2.6 3.5 5.8 1.25 3.2 1.25 6.6 0 3.5-1.3 6.72-1.3 3.23-3.63 5.75-2.32 2.53-5.5 3.98Q65.85.25 62.1.25Zm-10.3-18q0 2.3.7 4.45.7 2.15 2.02 3.83 1.33 1.67 3.25 2.64 1.93.98 4.38.98 2.5 0 4.45-1.03 1.95-1.02 3.25-2.75 1.3-1.72 1.97-3.85.68-2.12.68-4.27 0-2.3-.73-4.43-.72-2.12-2.05-3.8-1.32-1.67-3.25-2.65-1.92-.97-4.32-.97-2.55 0-4.48 1.02-1.92 1.03-3.22 2.73-1.3 1.7-1.98 3.8-.67 2.1-.67 4.3ZM79.95 0l13.1-35.5h7L113.1 0H106l-3.3-8.85H90.3L87.05 0h-7.1Zm11.5-13.7h10l-4.9-14.65-5.1 14.65Z" class="wordmark-text-0" data-fill-palette-color="primary"/></svg></svg></svg><svg width="149.031" height="17.609" transform="translate(46.06 71.999)" viewBox="0 0 149.031 17.609"><svg width="149.031" height="17.609" data-palette-color="#ffffff" viewBox="4 -33.25 287.72 34"><path fill="#fff" d="M20.9-6.25q0 7-8.45 7T4-6.25v-4.25h3.5v4.45q0 1.8 1.25 2.8 1.25 1 3.7 1t3.7-1q1.25-1 1.25-2.73 0-1.72-.37-2.74-.38-1.03-1.53-2.18l-8.8-8.6q-1.55-1.55-2.12-3.03Q4-24 4-26.25q0-3.35 2.08-5.18 2.07-1.82 6.27-1.82 8.05 0 8.05 7V-22h-3.5v-4.45q0-1.8-1.17-2.8-1.18-1-3.53-1-2.35 0-3.52 1-1.18 1-1.18 2.75t.35 2.75q.35 1 1.55 2.1l8.95 8.6q1.45 1.6 2 3.07.55 1.48.55 3.73Zm21.25 0V-9h3.5v2.75q0 3.35-2.05 5.18Q41.55.75 37.45.75q-4.1 0-6.2-1.82-2.1-1.83-2.1-5.18v-20q0-3.35 2.05-5.18 2.05-1.82 6.15-1.82 4.1 0 6.2 1.82 2.1 1.83 2.1 5.18v11h-13v9q0 4 4.75 4t4.75-4Zm-9.5-20v8h9.5v-8q0-4-4.75-4t-4.75 4Zm37.75 0V0h-1.5l-1.31-3.2q-1.04 1.8-2.75 2.87Q63.15.75 61.1.75q-7.2 0-7.2-7v-5q0-7 7.2-7h5.8v-8.2q0-1.8-1.15-2.8-1.16-1-3.4-1-4.45 0-4.45 3.8v2.95h-3.5v-2.75q0-3.35 1.97-5.18 1.98-1.82 5.98-1.82 3.99 0 6.02 1.82 2.03 1.83 2.03 5.18ZM66.9-7.1v-8.15h-5.8q-2.1 0-2.9 1.05-.8 1.05-.8 2.95v5q0 1.9.8 2.95.8 1.05 2.9 1.05 2.1 0 3.9-1.63 1.8-1.62 1.9-3.22Zm16.49-15.75V0h-3.5v-32.5h1.5l1.45 3.7q1.6-4.45 5.1-4.45 5.95 0 5.95 6.5v3.25h-3.35v-3.45q0-3.3-2.75-3.3-1.65 0-3.02 1.9-1.38 1.9-1.38 5.5Zm28.75 16.6V-9h3.5v2.75q0 3.35-2.05 5.18-2.05 1.82-6.15 1.82-4.1 0-6.2-1.82-2.1-1.83-2.1-5.18v-20q0-3.35 2.05-5.18 2.05-1.82 6.15-1.82 4.1 0 6.2 1.82 2.1 1.83 2.1 5.18v4.75h-3.5v-4.75q0-4-4.75-4t-4.75 4v20q0 4 4.75 4t4.75-4ZM127.89-15V0h-3.5v-32.5h3.5V-18h9.85v-14.5h3.5V0h-3.5v-15h-9.85Zm49.59 12v3h-14.75v-32.5h14.25v3h-10.75V-18h8.75v3h-8.75v12h11.25Zm11-22.25V0h-3.5v-32.5h1.5l1.25 3.25q2.4-4 6.65-4 7.35 0 7.35 7V0h-3.5v-26.25q0-1.9-.82-2.95-.83-1.05-3.03-1.05-2.2 0-4.05 1.7-1.85 1.7-1.85 3.3Zm35 11.75h-5.6v-3h9.1v10.25q0 3.35-2.05 5.18-2.05 1.82-6.15 1.82-4.1 0-6.2-1.82-2.1-1.83-2.1-5.18v-20q0-3.35 2.05-5.18 2.05-1.82 6.15-1.82 4.1 0 6.2 1.82 2.1 1.83 2.1 5.18v2.75h-3.5v-2.75q0-4-4.75-4t-4.75 4v20q0 4 4.75 4t4.75-4v-7.25Zm16.25-19V0h-3.5v-32.5h3.5Zm13.49 7.25V0h-3.5v-32.5h1.5l1.25 3.25q2.4-4 6.65-4 7.35 0 7.35 7V0h-3.5v-26.25q0-1.9-.82-2.95-.83-1.05-3.03-1.05-2.2 0-4.05 1.7-1.85 1.7-1.85 3.3Zm35 19V-9h3.5v2.75q0 3.35-2.05 5.18-2.05 1.82-6.15 1.82-4.1 0-6.2-1.82-2.1-1.83-2.1-5.18v-20q0-3.35 2.05-5.18 2.05-1.82 6.15-1.82 4.1 0 6.2 1.82 2.1 1.83 2.1 5.18v11h-13v9q0 4 4.75 4t4.75-4Zm-9.5-20v8h9.5v-8q0-4-4.75-4t-4.75 4Z" class="slogan-text-1" data-fill-palette-color="secondary"/></svg></svg></svg></svg></svg></svg></svg></svg>

<svg xmlns="http://www.w3.org/2000/svg" version="1.1" xmlns:xlink="http://www.w3.org/1999/xlink" xmlns:svgjs="http://svgjs.dev/svgjs" width="1000" height="373" viewBox="0 0 1000 373"><g transform="matrix(1,0,0,1,0.31189644480548395,-0.811964883751557)"><svg viewBox="0 0 241 90" data-background-color="#528265" preserveAspectRatio="xMidYMid meet" height="373" width="1000" xmlns="http://www.w3.org/2000/svg" xmlns:xlink="http://www.w3.org/1999/xlink"><g id="tight-bounds" transform="matrix(1,0,0,1,-0.07516704319812106,0.19591645988643336)"><svg viewBox="0 0 241.1503340863962 89.60816708022713" height="89.60816708022713" width="241.1503340863962"><g><svg viewBox="0 0 241.1503340863962 89.60816708022713" height="89.60816708022713" width="241.1503340863962"><g><svg viewBox="0 0 241.1503340863962 89.60816708022713" height="89.60816708022713" width="241.1503340863962"><g id="textblocktransform"><svg viewBox="0 0 241.1503340863962 89.60816708022713" height="89.60816708022713" width="241.1503340863962" id="textblock"><g><svg viewBox="0 0 241.1503340863962 58.248" height="58.248" width="241.1503340863962"><g><svg><g></g><g></g></svg></g><g><svg><g></g><g><svg></svg></g></svg></g><g id="text-0"><svg viewBox="0 0 241.1503340863962 58.248" height="58.248" width="241.1503340863962"><g><svg xmlns="http://www.w3.org/2000/svg" xmlns:xlink="http://www.w3.org/1999/xlink" version="1.1" x="0" y="0" viewBox="17.299999237060547 12.199999809265137 65.39999389648438 75.60000610351562" style="enable-background:new 0 0 100 100;" xml:space="preserve" height="58.248" width="50.38913408639622" class="icon-s-0" data-fill-palette-color="accent" id="s-0"><path d="M50 12.2L17.3 31.1v37.8L50 87.8l32.7-18.9V31.1L50 12.2zM32.1 37.4L50 16l17 21.4H32.1zM67.3 39.4L50 70.4l-18.2-31H67.3zM48.1 71l-27.7-4.5 9.8-25.9L48.1 71zM68.9 40.7l10.7 25.9-27.7 4.5L68.9 40.7zM69.2 37.1L52.6 16l27 15.6L69.2 37.1zM29.8 37.1l-9.4-5.5 26.8-15.5L29.8 37.1zM28.8 38.8l-9.5 25V33.3L28.8 38.8zM49 73.2v11.7L20.9 68.7 49 73.2zM51 73.2l28.1-4.5L51 84.9V73.2zM70.3 38.8l10.5-5.6v30.9L70.3 38.8z" fill="#ffffff" data-fill-palette-color="accent"></path></svg></g><g transform="matrix(1,0,0,1,64.14113408639622,0)"><svg width="177.0092" viewBox="3.700000047683716 -35.75 109.4000015258789 36" height="58.248" data-palette-color="#ffffff"><path d="M39.55 0L32.65 0 32.65-23.3 23.55-5.95 19.7-5.95 10.6-23.3 10.6 0 3.7 0 3.7-35.5 11.1-35.5 21.6-15.3 32.2-35.5 39.55-35.5 39.55 0ZM62.1 0.25L62.1 0.25Q58.2 0.25 55.02-1.25 51.85-2.75 49.57-5.33 47.3-7.9 46.05-11.13 44.8-14.35 44.8-17.75L44.8-17.75Q44.8-21.3 46.12-24.53 47.45-27.75 49.77-30.28 52.1-32.8 55.27-34.27 58.45-35.75 62.25-35.75L62.25-35.75Q66.1-35.75 69.27-34.2 72.45-32.65 74.7-30.05 76.95-27.45 78.2-24.25 79.45-21.05 79.45-17.65L79.45-17.65Q79.45-14.15 78.15-10.93 76.85-7.7 74.52-5.18 72.2-2.65 69.02-1.2 65.85 0.25 62.1 0.25ZM51.8-17.75L51.8-17.75Q51.8-15.45 52.5-13.3 53.2-11.15 54.52-9.47 55.85-7.8 57.77-6.83 59.7-5.85 62.15-5.85L62.15-5.85Q64.65-5.85 66.6-6.88 68.55-7.9 69.85-9.63 71.15-11.35 71.82-13.48 72.5-15.6 72.5-17.75L72.5-17.75Q72.5-20.05 71.77-22.18 71.05-24.3 69.72-25.98 68.4-27.65 66.47-28.63 64.55-29.6 62.15-29.6L62.15-29.6Q59.6-29.6 57.67-28.58 55.75-27.55 54.45-25.85 53.15-24.15 52.47-22.05 51.8-19.95 51.8-17.75ZM79.95 0L93.05-35.5 100.05-35.5 113.1 0 106 0 102.7-8.85 90.3-8.85 87.05 0 79.95 0ZM91.45-13.7L101.45-13.7 96.55-28.35 91.45-13.7Z" opacity="1" transform="matrix(1,0,0,1,0,0)" fill="#ffffff" class="wordmark-text-0" data-fill-palette-color="primary"></path></svg></g></svg></g></svg></g><g transform="matrix(1,0,0,1,46.05971381050168,71.998954848)"><svg viewBox="0 0 149.03090646539286 17.60921223222713" height="17.60921223222713" width="149.03090646539286"><g transform="matrix(1,0,0,1,0,0)"><svg width="149.03090646539286" viewBox="4 -33.25 287.7200012207031 34" height="17.60921223222713" data-palette-color="#ffffff"><path d="M20.9-6.25L20.9-6.25Q20.9 0.75 12.45 0.75 4 0.75 4-6.25L4-6.25 4-10.5 7.5-10.5 7.5-6.05Q7.5-4.25 8.75-3.25 10-2.25 12.45-2.25 14.9-2.25 16.15-3.25 17.4-4.25 17.4-5.98 17.4-7.7 17.03-8.72 16.65-9.75 15.5-10.9L15.5-10.9 6.7-19.5Q5.15-21.05 4.58-22.53 4-24 4-26.25L4-26.25Q4-29.6 6.08-31.43 8.15-33.25 12.35-33.25L12.35-33.25Q20.4-33.25 20.4-26.25L20.4-26.25 20.4-22 16.9-22 16.9-26.45Q16.9-28.25 15.73-29.25 14.55-30.25 12.2-30.25 9.85-30.25 8.68-29.25 7.5-28.25 7.5-26.5 7.5-24.75 7.85-23.75 8.2-22.75 9.4-21.65L9.4-21.65 18.35-13.05Q19.8-11.45 20.35-9.98 20.9-8.5 20.9-6.25ZM42.15-6.25L42.15-6.25 42.15-9 45.65-9 45.65-6.25Q45.65-2.9 43.6-1.07 41.55 0.75 37.45 0.75 33.35 0.75 31.25-1.07 29.15-2.9 29.15-6.25L29.15-6.25 29.15-26.25Q29.15-29.6 31.2-31.43 33.25-33.25 37.35-33.25 41.45-33.25 43.55-31.43 45.65-29.6 45.65-26.25L45.65-26.25 45.65-15.25 32.65-15.25 32.65-6.25Q32.65-2.25 37.4-2.25 42.15-2.25 42.15-6.25ZM32.65-26.25L32.65-26.25 32.65-18.25 42.15-18.25 42.15-26.25Q42.15-30.25 37.4-30.25 32.65-30.25 32.65-26.25ZM70.4-26.25L70.4 0 68.9 0 67.59-3.2Q66.55-1.4 64.84-0.33 63.15 0.75 61.1 0.75L61.1 0.75Q53.9 0.75 53.9-6.25L53.9-6.25 53.9-11.25Q53.9-18.25 61.1-18.25L61.1-18.25 66.9-18.25 66.9-26.45Q66.9-28.25 65.75-29.25 64.59-30.25 62.35-30.25L62.35-30.25Q57.9-30.25 57.9-26.45L57.9-26.45 57.9-23.5 54.4-23.5 54.4-26.25Q54.4-29.6 56.37-31.43 58.35-33.25 62.35-33.25 66.34-33.25 68.37-31.43 70.4-29.6 70.4-26.25L70.4-26.25ZM66.9-7.1L66.9-15.25 61.1-15.25Q59-15.25 58.2-14.2 57.4-13.15 57.4-11.25L57.4-11.25 57.4-6.25Q57.4-4.35 58.2-3.3 59-2.25 61.1-2.25 63.2-2.25 65-3.88 66.8-5.5 66.9-7.1L66.9-7.1ZM83.39-22.85L83.39 0 79.89 0 79.89-32.5 81.39-32.5 82.84-28.8Q84.44-33.25 87.94-33.25L87.94-33.25Q93.89-33.25 93.89-26.75L93.89-26.75 93.89-23.5 90.54-23.5 90.54-26.95Q90.54-30.25 87.79-30.25L87.79-30.25Q86.14-30.25 84.77-28.35 83.39-26.45 83.39-22.85L83.39-22.85ZM112.14-6.25L112.14-6.25 112.14-9 115.64-9 115.64-6.25Q115.64-2.9 113.59-1.07 111.54 0.75 107.44 0.75 103.34 0.75 101.24-1.07 99.14-2.9 99.14-6.25L99.14-6.25 99.14-26.25Q99.14-29.6 101.19-31.43 103.24-33.25 107.34-33.25 111.44-33.25 113.54-31.43 115.64-29.6 115.64-26.25L115.64-26.25 115.64-21.5 112.14-21.5 112.14-26.25Q112.14-30.25 107.39-30.25 102.64-30.25 102.64-26.25L102.64-26.25 102.64-6.25Q102.64-2.25 107.39-2.25 112.14-2.25 112.14-6.25ZM127.89-15L127.89 0 124.39 0 124.39-32.5 127.89-32.5 127.89-18 137.74-18 137.74-32.5 141.24-32.5 141.24 0 137.74 0 137.74-15 127.89-15ZM177.48-3L177.48 0 162.73 0 162.73-32.5 176.98-32.5 176.98-29.5 166.23-29.5 166.23-18 174.98-18 174.98-15 166.23-15 166.23-3 177.48-3ZM188.48-25.25L188.48 0 184.98 0 184.98-32.5 186.48-32.5 187.73-29.25Q190.13-33.25 194.38-33.25L194.38-33.25Q201.73-33.25 201.73-26.25L201.73-26.25 201.73 0 198.23 0 198.23-26.25Q198.23-28.15 197.41-29.2 196.58-30.25 194.38-30.25 192.18-30.25 190.33-28.55 188.48-26.85 188.48-25.25L188.48-25.25ZM223.48-13.5L217.88-13.5 217.88-16.5 226.98-16.5 226.98-6.25Q226.98-2.9 224.93-1.07 222.88 0.75 218.78 0.75 214.68 0.75 212.58-1.07 210.48-2.9 210.48-6.25L210.48-6.25 210.48-26.25Q210.48-29.6 212.53-31.43 214.58-33.25 218.68-33.25 222.78-33.25 224.88-31.43 226.98-29.6 226.98-26.25L226.98-26.25 226.98-23.5 223.48-23.5 223.48-26.25Q223.48-30.25 218.73-30.25 213.98-30.25 213.98-26.25L213.98-26.25 213.98-6.25Q213.98-2.25 218.73-2.25 223.48-2.25 223.48-6.25L223.48-6.25 223.48-13.5ZM239.73-32.5L239.73 0 236.23 0 236.23-32.5 239.73-32.5ZM253.22-25.25L253.22 0 249.72 0 249.72-32.5 251.22-32.5 252.47-29.25Q254.87-33.25 259.12-33.25L259.12-33.25Q266.47-33.25 266.47-26.25L266.47-26.25 266.47 0 262.97 0 262.97-26.25Q262.97-28.15 262.15-29.2 261.32-30.25 259.12-30.25 256.92-30.25 255.07-28.55 253.22-26.85 253.22-25.25L253.22-25.25ZM288.22-6.25L288.22-6.25 288.22-9 291.72-9 291.72-6.25Q291.72-2.9 289.67-1.07 287.62 0.75 283.52 0.75 279.42 0.75 277.32-1.07 275.22-2.9 275.22-6.25L275.22-6.25 275.22-26.25Q275.22-29.6 277.27-31.43 279.32-33.25 283.42-33.25 287.52-33.25 289.62-31.43 291.72-29.6 291.72-26.25L291.72-26.25 291.72-15.25 278.72-15.25 278.72-6.25Q278.72-2.25 283.47-2.25 288.22-2.25 288.22-6.25ZM278.72-26.25L278.72-26.25 278.72-18.25 288.22-18.25 288.22-26.25Q288.22-30.25 283.47-30.25 278.72-30.25 278.72-26.25Z" opacity="1" transform="matrix(1,0,0,1,0,0)" fill="#ffffff" class="slogan-text-1" data-fill-palette-color="secondary" id="text-1"></path></svg></g></svg></g></svg></g></svg></g></svg></g><defs></defs></svg><rect width="241.1503340863962" height="89.60816708022713" fill="none" stroke="none" visibility="hidden"></rect></g></svg></g></svg>
